X:1
T:在水一方
C:zhiming@vmiis.com
M:4/4
L:1/8
Q:1/4=80
K:C
V:1
%%MIDI program 24
z2z2z2GA|c6ga|e6Ac/2e/2|d6ea/2e/2|
g6g2|a6ba/2g/2|e6Gg|d6AB|c8|
c'2>b2 abc'2|efg6|a2gf e2Ae|d6ef|
g2>c'2 b2da|g8|c'2>b2 abc'2|efg6|
a2gf e2Ae|d6ef|g2>a2g2fe|d6de|
f2ba g2Bd|c8|